; G-Code generated by Simplify3D(R) Version 3.0.0
; Feb 19, 2017 at 12:28:22 
; Settings Summary
;   processName,Process1
;   applyToModels,Bed_calibration_test
;   profileName,Simplify3D Anet A8 Profile (modified)
;   profileVersion,2017-01-07 22:45:07
;   baseProfile,
;   printMaterial,
;   printQuality,
;   printExtruders,
;   extruderName,Extruder 1
;   extruderToolheadNumber,0
;   extruderDiameter,0.4
;   extruderAutoWidth,0
;   extruderWidth,0.45
;   extrusionMultiplier,1
;   extruderUseRetract,1
;   extruderRetractionDistance,1.9
;   extruderExtraRestartDistance,0.05
;   extruderRetractionZLift,0
;   extruderRetractionSpeed,3600
;   extruderUseCoasting,1
;   extruderCoastingDistance,0.1
;   extruderUseWipe,0
;   extruderWipeDistance,5
;   primaryExtruder,0
;   layerHeight,0.25
;   topSolidLayers,4
;   bottomSolidLayers,3
;   perimeterOutlines,1
;   printPerimetersInsideOut,0
;   startPointOption,2
;   startPointOriginX,0
;   startPointOriginY,0
;   startPointOriginZ,300
;   sequentialIslands,0
;   spiralVaseMode,0
;   firstLayerHeightPercentage,100
;   firstLayerWidthPercentage,100
;   firstLayerUnderspeed,0.7
;   useRaft,0
;   raftExtruder,0
;   raftLayers,2
;   raftOffset,2
;   raftSeparationDistance,0.14
;   raftInfill,85
;   disableRaftBaseLayers,0
;   useSkirt,1
;   skirtExtruder,0
;   skirtLayers,1
;   skirtOutlines,2
;   skirtOffset,5
;   usePrimePillar,0
;   primePillarExtruder,0
;   primePillarWidth,4
;   primePillarLocation,7
;   primePillarSpeedMultiplier,1
;   useOozeShield,0
;   oozeShieldExtruder,999
;   oozeShieldOffset,2
;   oozeShieldOutlines,1
;   oozeShieldSidewallShape,1
;   oozeShieldSidewallAngle,30
;   oozeShieldSpeedMultiplier,1
;   infillExtruder,0
;   internalInfillPattern,Full Honeycomb
;   externalInfillPattern,Rectilinear
;   infillPercentage,53
;   outlineOverlapPercentage,30
;   infillExtrusionWidthPercentage,100
;   minInfillLength,5
;   infillLayerInterval,1
;   infillAngles,0,120,-120
;   overlapInfillAngles,0
;   generateSupport,1
;   supportExtruder,0
;   supportInfillPercentage,25
;   supportExtraInflation,0
;   denseSupportLayers,0
;   denseSupportInfillPercentage,40
;   supportLayerInterval,1
;   supportHorizontalPartOffset,0.3
;   supportUpperSeparationLayers,1
;   supportLowerSeparationLayers,1
;   supportType,0
;   supportGridSpacing,3.8
;   maxOverhangAngle,60
;   supportAngles,0
;   temperatureName,Extruder 1 Temperature,Heated Bed
;   temperatureNumber,0,0
;   temperatureSetpointCount,2,1
;   temperatureSetpointLayers,1,2,1
;   temperatureSetpointTemperatures,240,230,80
;   temperatureStabilizeAtStartup,1,1
;   temperatureHeatedBed,0,1
;   temperatureRelayBetweenLayers,0,0
;   temperatureRelayBetweenLoops,0,0
;   fanLayers,1,3,4,5,6
;   fanSpeeds,0,25,50,75,100
;   blipFanToFullPower,0
;   adjustSpeedForCooling,1
;   minSpeedLayerTime,15
;   minCoolingSpeedSlowdown,20
;   increaseFanForCooling,0
;   minFanLayerTime,45
;   maxCoolingFanSpeed,100
;   increaseFanForBridging,0
;   bridgingFanSpeed,100
;   use5D,1
;   relativeEdistances,0
;   allowEaxisZeroing,1
;   independentExtruderAxes,0
;   includeM10123,0
;   stickySupport,1
;   applyToolheadOffsets,0
;   gcodeXoffset,0
;   gcodeYoffset,0
;   gcodeZoffset,0
;   overrideMachineDefinition,1
;   machineTypeOverride,0
;   strokeXoverride,220
;   strokeYoverride,220
;   strokeZoverride,220
;   originOffsetXoverride,0
;   originOffsetYoverride,0
;   originOffsetZoverride,0
;   homeXdirOverride,-1
;   homeYdirOverride,-1
;   homeZdirOverride,-1
;   flipXoverride,1
;   flipYoverride,-1
;   flipZoverride,1
;   toolheadOffsets,0,0|0,0|0,0|0,0|0,0|0,0
;   overrideFirmwareConfiguration,0
;   firmwareTypeOverride,RepRap (Marlin/Repetier/Sprinter)
;   GPXconfigOverride,r2
;   baudRateOverride,115200
;   overridePrinterModels,0
;   printerModelsOverride
;   startingGcode,;Sliced at: {day} {date} {time},;Basic settings: Layer height: {layer_height} Walls: {wall_thickness} Fill: {fill_density},;Print time: {print_time},;Filament used: {filament_amount}m {filament_weight}g,;Filament cost: {filament_cost},;M190 S{print_bed_temperature} ;Uncomment to add your own bed temperature line,;M109 S{print_temperature} ;Uncomment to add your own temperature line,G21 ;metric values,G90 ;absolute positioning,M82 ;set extruder to absolute mode,M107 ;start with the fan off,G28 X0 Y0 ;move X/Y to min endstops,G28,G29,G1 Z15.0 F{travel_speed} ;move the platform down 15mm,G92 E0 ;zero the extruded length,G1 F200 E3  ;extrude 3mm of feed stock,G92 E0 ;zero the extruded length again,G1 F{travel_speed},;Put printing message on LCD screen,M117 Druck läuft...
;   layerChangeGcode,
;   retractionGcode,
;   toolChangeGcode,
;   endingGcode,M104 S0 ; turn off extruder,M140 S0 ; turn off bed,G91 ;relative positioning,G1 E-2 F300	; retract the filament a bit,G1 Z+30 E-3 F9000 ;move Z up a bit and retract filament even more,G90;absolute positioning,G1 X210 Y210 F4000,M84 ; disable motors,M107 ; shut off fan,
;   createX3G,1
;   celebration,1
;   celebrationSong,Take On Me
;   createMB5G,0
;   postProcessing,
;   defaultSpeed,4200
;   outlineUnderspeed,0.5
;   solidInfillUnderspeed,0.8
;   supportUnderspeed,0.8
;   rapidXYspeed,4200
;   rapidZspeed,1002
;   minBridgingArea,50
;   bridgingExtraInflation,0
;   bridgingExtrusionMultiplier,1
;   bridgingSpeedMultiplier,1
;   filamentDiameter,1.75
;   filamentPricePerKg,30
;   filamentDensity,1.31
;   useMinPrintHeight,0
;   minPrintHeight,0
;   useMaxPrintHeight,0
;   maxPrintHeight,0
;   useDiaphragm,0
;   diaphragmLayerInterval,20
;   robustSlicing,1
;   mergeAllIntoSolid,0
;   onlyRetractWhenCrossingOutline,1
;   retractBetweenLayers,1
;   useRetractionMinTravel,0
;   retractionMinTravel,3
;   retractWhileWiping,0
;   onlyWipeOutlines,1
;   avoidCrossingOutline,0
;   maxMovementDetourFactor,3
;   toolChangeRetractionDistance,12
;   toolChangeExtraRestartDistance,-0.5
;   toolChangeRetractionSpeed,600
;   allowThinWallGapFill,1
;   thinWallAllowedOverlapPercentage,50
;   horizontalSizeCompensation,0
G90
M82
M106 S0
M140 S80
M190 S80
M104 S240 T0
M109 S240 T0
;Sliced at: {day} {date} {time}
;Basic settings: Layer height: {layer_height} Walls: {wall_thickness} Fill: {fill_density}
;Print time: {print_time}
;Filament used: {filament_amount}m {filament_weight}g
;Filament cost: {filament_cost}
;M190 S{print_bed_temperature} ;Uncomment to add your own bed temperature line
;M109 S{print_temperature} ;Uncomment to add your own temperature line
G21 ;metric values
G90 ;absolute positioning
M82 ;set extruder to absolute mode
M107 ;start with the fan off
G28 X0 Y0 ;move X/Y to min endstops
G28
G29
G1 Z15.0 F{travel_speed} ;move the platform down 15mm
G92 E0 ;zero the extruded length
G1 F200 E3  ;extrude 3mm of feed stock
G92 E0 ;zero the extruded length again
G1 F{travel_speed}
;Put printing message on LCD screen
M117 Druck läuft...
G92 E0
G1 E-1.9000 F3600
G1 Z0.250 F1002
; layer 1, Z = 0.25
T0
; tool H0.250 W0.450
; skirt
G1 X7.546 Y4.427 F4200
G1 E0.0500 F1080
G92 E0
G1 X7.794 Y4.324 E0.0126 F2940
G1 X212.206 Y4.325 E9.5734
G1 X212.454 Y4.428 E9.5859
G1 X215.573 Y7.547 E9.7922
G1 X215.676 Y7.795 E9.8048
G1 X215.676 Y212.206 E19.3655
G1 X215.573 Y212.454 E19.3780
G1 X212.454 Y215.573 E19.5843
G1 X212.206 Y215.675 E19.5969
G1 X7.794 Y215.675 E29.1577
G1 X7.546 Y215.573 E29.1703
G1 X4.427 Y212.454 E29.3766
G1 X4.324 Y212.206 E29.3891
G1 X4.324 Y7.794 E38.9499
G1 X4.427 Y7.546 E38.9624
G1 X7.475 Y4.498 E39.1641
G1 X7.546 Y4.427 F2940
G1 X7.800 Y4.809 F4200
G92 E0
G1 X7.883 Y4.774 E0.0042 F2940
G1 X212.117 Y4.775 E9.5566
G1 X212.200 Y4.810 E9.5608
G1 X215.192 Y7.802 E9.7587
G1 X215.226 Y7.885 E9.7629
G1 X215.226 Y212.116 E19.3152
G1 X215.192 Y212.199 E19.3194
G1 X212.200 Y215.191 E19.5174
G1 X212.117 Y215.225 E19.5215
G1 X7.883 Y215.225 E29.0740
G1 X7.800 Y215.191 E29.0782
G1 X4.808 Y212.199 E29.2761
G1 X4.774 Y212.116 E29.2803
G1 X4.774 Y7.884 E38.8327
G1 X4.808 Y7.801 E38.8368
G1 X7.730 Y4.879 E39.0301
G1 X7.801 Y4.809 F2940
G92 E0
G1 E-1.9000 F3600
; outer perimeter
G1 X10.224 Y10.224 F4200
G1 E0.0500 F3600
G92 E0
G1 X209.776 Y10.225 E9.3335 F1470
G1 X209.776 Y209.775 E18.6668
G1 X10.224 Y209.775 E28.0003
G1 X10.224 Y10.325 E37.3290
G1 X10.224 Y10.224 F1470
; outer perimeter
G1 X10.275 Y10.275 F4200
G92 E0
G1 X10.275 Y35.475 E1.1787 F1470
G1 X35.474 Y35.475 E2.3573
G1 X35.474 Y10.275 E3.5359
G1 X10.375 Y10.275 E4.7099
G1 X10.275 Y10.275 F1470
; outer perimeter
G1 X35.524 Y10.275 F4200
G92 E0
G1 X35.524 Y35.475 E1.1787 F1470
G1 X60.224 Y35.475 E2.3339
G1 X60.224 Y10.275 E3.5126
G1 X35.624 Y10.275 E4.6632
G1 X35.524 Y10.275 F1470
; outer perimeter
G1 X60.274 Y10.275 F4200
G92 E0
G1 X60.274 Y35.475 E1.1787 F1470
G1 X85.224 Y35.475 E2.3456
G1 X85.224 Y10.275 E3.5243
G1 X60.374 Y10.275 E4.6866
G1 X60.274 Y10.275 F1470
; outer perimeter
G1 X85.274 Y10.275 F4200
G92 E0
G1 X85.274 Y35.475 E1.1787 F1470
G1 X110.224 Y35.475 E2.3456
G1 X110.224 Y10.275 E3.5243
G1 X85.374 Y10.275 E4.6866
G1 X85.274 Y10.275 F1470
; outer perimeter
G1 X110.274 Y10.275 F4200
G92 E0
G1 X110.274 Y35.475 E1.1787 F1470
G1 X134.724 Y35.475 E2.3222
G1 X134.724 Y10.275 E3.5009
G1 X110.374 Y10.275 E4.6398
G1 X110.274 Y10.275 F1470
; outer perimeter
G1 X134.774 Y10.275 F4200
G92 E0
G1 X134.774 Y35.475 E1.1787 F1470
G1 X159.724 Y35.475 E2.3456
G1 X159.724 Y10.275 E3.5243
G1 X134.874 Y10.275 E4.6866
G1 X134.774 Y10.275 F1470
; outer perimeter
G1 X159.774 Y10.275 F4200
G92 E0
G1 X159.774 Y35.475 E1.1787 F1470
G1 X184.474 Y35.475 E2.3339
G1 X184.474 Y10.275 E3.5126
G1 X159.874 Y10.275 E4.6632
G1 X159.774 Y10.275 F1470
; outer perimeter
G1 X184.524 Y10.275 F4200
G92 E0
G1 X184.524 Y35.475 E1.1787 F1470
G1 X209.724 Y35.475 E2.3573
G1 X209.724 Y10.275 E3.5360
G1 X184.624 Y10.275 E4.7099
G1 X184.524 Y10.275 F1470
; outer perimeter
G1 X184.524 Y35.525 F4200
G92 E0
G1 X184.524 Y60.225 E1.1553 F1470
G1 X209.724 Y60.225 E2.3339
G1 X209.724 Y35.525 E3.4892
G1 X184.624 Y35.525 E4.6632
G1 X184.524 Y35.525 F1470
; outer perimeter
G1 X159.774 Y35.525 F4200
G92 E0
G1 X159.774 Y60.225 E1.1553 F1470
G1 X184.474 Y60.225 E2.3105
G1 X184.474 Y35.525 E3.4658
G1 X159.874 Y35.525 E4.6164
G1 X159.774 Y35.525 F1470
; outer perimeter
G1 X134.774 Y35.525 F4200
G92 E0
G1 X134.774 Y60.225 E1.1553 F1470
G1 X159.724 Y60.225 E2.3222
G1 X159.724 Y35.525 E3.4775
G1 X134.874 Y35.525 E4.6398
G1 X134.774 Y35.525 F1470
; outer perimeter
G1 X110.274 Y35.525 F4200
G92 E0
G1 X110.274 Y60.225 E1.1553 F1470
G1 X134.724 Y60.225 E2.2988
G1 X134.724 Y35.525 E3.4541
G1 X110.374 Y35.525 E4.5930
G1 X110.274 Y35.525 F1470
; outer perimeter
G1 X85.274 Y35.525 F4200
G92 E0
G1 X85.274 Y60.225 E1.1553 F1470
G1 X110.224 Y60.225 E2.3222
G1 X110.224 Y35.525 E3.4775
G1 X85.374 Y35.525 E4.6398
G1 X85.274 Y35.525 F1470
; outer perimeter
G1 X60.274 Y35.525 F4200
G92 E0
G1 X60.274 Y60.225 E1.1553 F1470
G1 X85.224 Y60.225 E2.3222
G1 X85.224 Y35.525 E3.4775
G1 X60.374 Y35.525 E4.6398
G1 X60.274 Y35.525 F1470
; outer perimeter
G1 X35.524 Y35.525 F4200
G92 E0
G1 X35.524 Y60.225 E1.1553 F1470
G1 X60.224 Y60.225 E2.3105
G1 X60.224 Y35.525 E3.4658
G1 X35.624 Y35.525 E4.6164
G1 X35.524 Y35.525 F1470
; outer perimeter
G1 X10.275 Y35.525 F4200
G92 E0
G1 X10.275 Y60.225 E1.1553 F1470
G1 X35.474 Y60.225 E2.3339
G1 X35.474 Y35.525 E3.4891
G1 X10.375 Y35.525 E4.6631
G1 X10.275 Y35.525 F1470
; outer perimeter
G1 X10.275 Y60.275 F4200
G92 E0
G1 X10.275 Y85.225 E1.1670 F1470
G1 X35.474 Y85.225 E2.3456
G1 X35.474 Y60.275 E3.5125
G1 X10.375 Y60.275 E4.6865
G1 X10.275 Y60.275 F1470
; outer perimeter
G1 X10.275 Y85.275 F4200
G92 E0
G1 X10.275 Y109.725 E1.1436 F1470
G1 X35.474 Y109.725 E2.3222
G1 X35.474 Y85.275 E3.4658
G1 X10.375 Y85.275 E4.6397
G1 X10.275 Y85.275 F1470
; outer perimeter
G1 X10.275 Y109.775 F4200
G92 E0
G1 X10.275 Y134.725 E1.1670 F1470
G1 X35.474 Y134.725 E2.3456
G1 X35.474 Y109.775 E3.5125
G1 X10.375 Y109.775 E4.6865
G1 X10.275 Y109.775 F1470
; outer perimeter
G1 X10.275 Y134.775 F4200
G92 E0
G1 X10.275 Y159.725 E1.1670 F1470
G1 X35.474 Y159.725 E2.3456
G1 X35.474 Y134.775 E3.5125
G1 X10.375 Y134.775 E4.6865
G1 X10.275 Y134.775 F1470
; outer perimeter
G1 X10.275 Y159.775 F4200
G92 E0
G1 X10.275 Y184.475 E1.1553 F1470
G1 X35.474 Y184.475 E2.3339
G1 X35.474 Y159.775 E3.4891
G1 X10.375 Y159.775 E4.6631
G1 X10.275 Y159.775 F1470
; outer perimeter
G1 X10.275 Y184.525 F4200
G92 E0
G1 X10.275 Y209.725 E1.1787 F1470
G1 X35.474 Y209.725 E2.3573
G1 X35.474 Y184.525 E3.5359
G1 X10.375 Y184.525 E4.7099
G1 X10.275 Y184.525 F1470
; outer perimeter
G1 X35.524 Y184.525 F4200
G92 E0
G1 X35.524 Y209.725 E1.1787 F1470
G1 X60.224 Y209.725 E2.3339
G1 X60.224 Y184.525 E3.5126
G1 X35.624 Y184.525 E4.6632
G1 X35.524 Y184.525 F1470
; outer perimeter
G1 X35.524 Y159.775 F4200
G92 E0
G1 X35.524 Y184.475 E1.1553 F1470
G1 X60.224 Y184.475 E2.3105
G1 X60.224 Y159.775 E3.4658
G1 X35.624 Y159.775 E4.6164
G1 X35.524 Y159.775 F1470
; outer perimeter
G1 X35.524 Y134.775 F4200
G92 E0
G1 X35.524 Y159.725 E1.1670 F1470
G1 X60.224 Y159.725 E2.3222
G1 X60.224 Y134.775 E3.4892
G1 X35.624 Y134.775 E4.6398
G1 X35.524 Y134.775 F1470
; outer perimeter
G1 X35.524 Y109.775 F4200
G92 E0
G1 X35.524 Y134.725 E1.1670 F1470
G1 X60.224 Y134.725 E2.3222
G1 X60.224 Y109.775 E3.4892
G1 X35.624 Y109.775 E4.6398
G1 X35.524 Y109.775 F1470
; outer perimeter
G1 X35.524 Y85.275 F4200
G92 E0
G1 X35.524 Y109.725 E1.1436 F1470
G1 X60.224 Y109.725 E2.2988
G1 X60.224 Y85.275 E3.4424
G1 X35.624 Y85.275 E4.5930
G1 X35.524 Y85.275 F1470
; outer perimeter
G1 X35.524 Y60.275 F4200
G92 E0
G1 X35.524 Y85.225 E1.1670 F1470
G1 X60.224 Y85.225 E2.3222
G1 X60.224 Y60.275 E3.4892
G1 X35.624 Y60.275 E4.6398
G1 X35.524 Y60.275 F1470
; outer perimeter
G1 X60.274 Y60.275 F4200
G92 E0
G1 X60.274 Y85.225 E1.1670 F1470
G1 X85.224 Y85.225 E2.3339
G1 X85.224 Y60.275 E3.5009
G1 X60.374 Y60.275 E4.6632
G1 X60.274 Y60.275 F1470
; outer perimeter
G1 X60.274 Y85.275 F4200
G92 E0
G1 X60.274 Y109.725 E1.1436 F1470
G1 X85.224 Y109.725 E2.3105
G1 X85.224 Y85.275 E3.4541
G1 X60.374 Y85.275 E4.6164
G1 X60.274 Y85.275 F1470
; outer perimeter
G1 X60.274 Y109.775 F4200
G92 E0
G1 X60.274 Y134.725 E1.1670 F1470
G1 X85.224 Y134.725 E2.3339
G1 X85.224 Y109.775 E3.5009
G1 X60.374 Y109.775 E4.6632
G1 X60.274 Y109.775 F1470
; outer perimeter
G1 X60.274 Y134.775 F4200
G92 E0
G1 X60.274 Y159.725 E1.1670 F1470
G1 X85.224 Y159.725 E2.3339
G1 X85.224 Y134.775 E3.5009
G1 X60.374 Y134.775 E4.6632
G1 X60.274 Y134.775 F1470
; outer perimeter
G1 X60.274 Y159.775 F4200
G92 E0
G1 X60.274 Y184.475 E1.1553 F1470
G1 X85.224 Y184.475 E2.3222
G1 X85.224 Y159.775 E3.4775
G1 X60.374 Y159.775 E4.6398
G1 X60.274 Y159.775 F1470
; outer perimeter
G1 X60.274 Y184.525 F4200
G92 E0
G1 X60.274 Y209.725 E1.1787 F1470
G1 X85.224 Y209.725 E2.3456
G1 X85.224 Y184.525 E3.5243
G1 X60.374 Y184.525 E4.6866
G1 X60.274 Y184.525 F1470
; outer perimeter
G1 X85.274 Y184.525 F4200
G92 E0
G1 X85.274 Y209.725 E1.1787 F1470
G1 X110.224 Y209.725 E2.3456
G1 X110.224 Y184.525 E3.5243
G1 X85.374 Y184.525 E4.6866
G1 X85.274 Y184.525 F1470
; outer perimeter
G1 X85.274 Y159.775 F4200
G92 E0
G1 X85.274 Y184.475 E1.1553 F1470
G1 X110.224 Y184.475 E2.3222
G1 X110.224 Y159.775 E3.4775
G1 X85.374 Y159.775 E4.6398
G1 X85.274 Y159.775 F1470
; outer perimeter
G1 X85.274 Y134.775 F4200
G92 E0
G1 X85.274 Y159.725 E1.1670 F1470
G1 X110.224 Y159.725 E2.3339
G1 X110.224 Y134.775 E3.5009
G1 X85.374 Y134.775 E4.6632
G1 X85.274 Y134.775 F1470
; outer perimeter
G1 X85.274 Y109.775 F4200
G92 E0
