; generated by PrusaSlicer 2.1.0+ on 2019-12-26 at 20:40:27 UTC

; 

; external perimeters extrusion width = 0.45mm
; perimeters extrusion width = 0.45mm
; infill extrusion width = 0.45mm
; solid infill extrusion width = 0.45mm
; top infill extrusion width = 0.40mm
; first layer extrusion width = 0.42mm

M73 P0 R7
M73 Q0 S7
M201 X1000 Y1000 Z1000 E5000 ; sets maximum accelerations, mm/sec^2
M203 X200 Y200 Z12 E120 ; sets maximum feedrates, mm/sec
M204 P1250 R1250 T1250 ; sets acceleration (P, T) and retract acceleration (R), mm/sec^2
M205 X8.00 Y8.00 Z0.40 E1.50 ; sets the jerk limits, mm/sec
M205 S0 T0 ; sets the minimum extruding and travel feed rate, mm/sec
M107
M862.3 P "MK3SMMU2S" ; printer model check
M862.1 P0.4 ; nozzle diameter check
M115 U3.8.1 ; tell printer latest fw version
G90 ; use absolute coordinates
M83 ; extruder relative mode
M104 S215 ; set extruder temp
M140 S60 ; set bed temp
Tx
M190 S60 ; wait for bed temp
M109 S215 ; wait for extruder temp
G28 W ; home all without mesh bed level
G80 ; mesh bed leveling

G21 ; set units to millimeters

;go outside print area
G1 Y-3.0 F1000.0
G1 Z0.4 F1000.0
; select extruder
Tc
; purge line
G1 X55.0 F2000.0
G1 Z0.3 F1000.0
G92 E0.0
G1 X240.0 E25.0 F2200.0
M73 Q1 S7
M73 P1 R7
G1 Y-2.0 F1000.0
G1 X55.0 E25 F1400.0
G1 Z0.20 F1000.0
G1 X5.0 E4.0 F1000.0

M221 S95
G92 E0.0
G21 ; set units to millimeters
G90 ; use absolute coordinates
M83 ; use relative distances for extrusion
M900 K30 ; Filament gcode
;BEFORE_LAYER_CHANGE
G92 E0.0
;0.2


G1 E-0.80000 F2100.00000
G1 Z0.600 F10800.000
;AFTER_LAYER_CHANGE
;0.2
G1 X120.531 Y98.683
G1 Z0.200
G1 E0.80000 F2100.00000
M204 S1000
G1 F900
G1 X121.061 Y98.276 E0.02095
G1 X121.694 Y97.992 E0.02174
G1 X122.380 Y97.864 E0.02187
G1 X127.429 Y97.857 E0.15833
G1 X128.167 Y97.952 E0.02332
G1 X128.861 Y98.231 E0.02346
G1 X129.459 Y98.674 E0.02332
G1 X129.928 Y99.252 E0.02332
G1 X132.600 Y103.953 E0.16957
G1 X132.749 Y104.496 E0.01765
G1 X132.792 Y105.061 E0.01778
G1 X132.727 Y105.620 E0.01765
G1 X132.556 Y106.156 E0.01765
G1 X129.873 Y110.834 E0.16906
G1 X129.385 Y111.395 E0.02332
G1 X128.776 Y111.815 E0.02319
G1 X128.139 Y112.055 E0.02135
G1 X127.464 Y112.143 E0.02135
G1 X122.461 Y112.141 E0.15687
G1 X121.416 Y111.905 E0.03356
G1 X120.715 Y111.481 E0.02570
G1 X120.161 Y110.883 E0.02556
G1 X117.510 Y106.299 E0.16602
G1 X117.293 Y105.703 E0.01989
G1 X117.208 Y105.079 E0.01976
G1 X117.259 Y104.450 E0.01976
G1 X117.444 Y103.844 E0.01989
G1 X120.106 Y99.198 E0.16787
G1 X120.493 Y98.729 E0.01907
G1 X120.783 Y98.967 F10800.000
G1 F900
G1 X121.263 Y98.595 E0.01907
G1 X121.823 Y98.347 E0.01919
G1 X122.425 Y98.239 E0.01919
G1 X127.429 Y98.234 E0.15690
G1 X128.075 Y98.318 E0.02042
G1 X128.682 Y98.563 E0.02054
G1 X129.205 Y98.952 E0.02042
G1 X129.615 Y99.463 E0.02054
G1 X132.238 Y104.063 E0.16604
G1 X132.415 Y105.054 E0.03156
G1 X132.355 Y105.556 E0.01586
G1 X132.195 Y106.040 E0.01598
G1 X129.566 Y110.614 E0.16544
G1 X129.141 Y111.108 E0.02042
G1 X128.602 Y111.480 E0.02054
G1 X128.040 Y111.691 E0.01882
G1 X127.449 Y111.766 E0.01869
G1 X122.480 Y111.764 E0.15578
G1 X121.537 Y111.547 E0.03034
G1 X120.934 Y111.172 E0.02226
G1 X120.456 Y110.647 E0.02226
G1 X117.848 Y106.133 E0.16347
G1 X117.657 Y105.606 E0.01758
G1 X117.585 Y105.049 E0.01758
G1 X117.635 Y104.491 E0.01758
G1 X117.805 Y103.960 E0.01746
G1 X120.419 Y99.409 E0.16458
G1 X120.744 Y99.014 E0.01605
G1 F8640
G1 X121.263 Y98.595 E-0.15396
G1 X121.823 Y98.347 E-0.14129
G1 X122.425 Y98.239 E-0.14129
G1 X123.826 Y98.237 E-0.32346
G1 E-0.04000 F2100.00000
G1 Z0.800 F10800.000
G1 X132.038 Y105.049
G1 Z0.200
G1 E0.80000 F2100.00000
G1 F900
G1 X131.839 Y105.912 E0.02777
G1 X129.259 Y110.394 E0.16215
G1 X128.895 Y110.821 E0.01760
G1 X128.434 Y111.142 E0.01760
G1 X127.950 Y111.325 E0.01623
G1 X127.440 Y111.389 E0.01612
G1 X122.498 Y111.387 E0.15494
G1 X121.664 Y111.190 E0.02687
G1 X121.154 Y110.865 E0.01896
G1 X120.753 Y110.413 E0.01896
G1 X118.187 Y105.969 E0.16089
G1 X118.022 Y105.512 E0.01521
G1 X117.962 Y105.031 E0.01521
G1 X118.009 Y104.548 E0.01521
G1 X118.161 Y104.088 E0.01521
G1 X120.729 Y99.624 E0.16146
G1 X121.054 Y99.226 E0.01612
G1 X121.460 Y98.917 E0.01601
G1 X121.941 Y98.705 E0.01646
G1 X122.462 Y98.614 E0.01658
G1 X127.429 Y98.611 E0.15574
G1 X127.985 Y98.684 E0.01760
G1 X128.502 Y98.894 E0.01749
G1 X128.951 Y99.231 E0.01760
G1 X129.298 Y99.668 E0.01749
G1 X131.877 Y104.175 E0.16282
G1 X132.027 Y104.990 E0.02600
G1 F8640
G1 X131.839 Y105.912 E-0.21728
G1 X130.667 Y107.949 E-0.54272
G1 E-0.04000 F2100.00000
G1 Z0.800 F10800.000
G1 X127.799 Y105.195
G1 Z0.200
G1 E0.80000 F2100.00000
G1 F900
G1 X127.861 Y105.790 E0.01876
G1 X127.799 Y106.385 E0.01876
G1 X127.614 Y106.954 E0.01876
G1 X127.315 Y107.472 E0.01875
G1 X126.914 Y107.916 E0.01875
G1 X126.431 Y108.268 E0.01876
G1 X125.884 Y108.511 E0.01875
G1 X125.299 Y108.636 E0.01875
G1 X124.701 Y108.636 E0.01875
G1 X124.116 Y108.511 E0.01875
G1 X123.569 Y108.268 E0.01875
G1 X123.085 Y107.916 E0.01876
G1 X122.685 Y107.472 E0.01875
G1 X122.386 Y106.954 E0.01875
G1 X122.201 Y106.385 E0.01876
G1 X122.139 Y105.790 E0.01876
G1 X122.201 Y105.195 E0.01876
G1 X122.386 Y104.626 E0.01876
G1 X122.685 Y104.108 E0.01875
G1 X123.086 Y103.664 E0.01875
G1 X123.569 Y103.312 E0.01876
G1 X124.116 Y103.069 E0.01875
G1 X124.701 Y102.945 E0.01875
G1 X125.299 Y102.945 E0.01875
G1 X125.884 Y103.069 E0.01875
G1 X126.431 Y103.312 E0.01875
G1 X126.915 Y103.664 E0.01876
G1 X127.315 Y104.108 E0.01875
G1 X127.614 Y104.626 E0.01875
G1 X127.780 Y105.138 E0.01687
G1 X128.179 Y105.319 F10800.000
G1 F8640
G1 X127.861 Y105.790 E-0.15170
G1 X127.799 Y106.385 E-0.13812
G1 X127.614 Y106.954 E-0.13812
G1 X127.315 Y107.472 E-0.13810
G1 X126.914 Y107.916 E-0.13807
G1 X126.719 Y108.059 E-0.05589
G1 E-0.04000 F2100.00000
G1 Z0.800 F10800.000
G1 X127.967 Y107.088
G1 Z0.200
G1 E0.80000 F2100.00000
G1 F900
G1 X128.169 Y106.464 E0.02057
G1 X128.240 Y105.790 E0.02124
G1 X128.170 Y105.116 E0.02124
G1 X127.960 Y104.472 E0.02124
G1 X127.622 Y103.886 E0.02124
G1 X127.168 Y103.382 E0.02124
G1 X126.620 Y102.984 E0.02125
G1 X126.001 Y102.708 E0.02124
G1 X125.339 Y102.567 E0.02124
G1 X124.661 Y102.567 E0.02124
G1 X123.999 Y102.708 E0.02124
G1 X123.380 Y102.984 E0.02124
G1 X122.832 Y103.382 E0.02124
G1 X122.379 Y103.885 E0.02123
G1 X122.040 Y104.472 E0.02124
G1 X121.831 Y105.116 E0.02124
G1 X121.760 Y105.790 E0.02124
G1 X121.830 Y106.464 E0.02124
G1 X122.033 Y107.088 E0.02058
G1 X120.828 Y105.000 E0.07558
G1 X122.914 Y101.387 E0.13081
G1 X127.086 Y101.387 E0.13081
G1 X129.172 Y105.000 E0.13081
G1 X127.997 Y107.036 E0.07371
G1 X127.607 Y107.710 F10800.000
G1 F900
G1 X127.086 Y108.613 E0.03269
G1 X126.582 Y108.613 E0.01580
G1 X127.168 Y108.198 E0.02252
G1 X127.567 Y107.755 E0.01869
G1 F8640
G1 X127.086 Y108.613 E-0.22717
G1 X126.582 Y108.613 E-0.11634
G1 X127.168 Y108.198 E-0.16583
G1 X127.567 Y107.755 E-0.13766
G1 E-0.15300 F2100.00000
G1 Z0.800 F10800.000
G1 X123.418 Y108.613
G1 Z0.200
G1 E0.80000 F2100.00000
G1 F900
G1 X122.914 Y108.613 E0.01580
G1 X122.393 Y107.710 E0.03269
G1 X122.832 Y108.198 E0.02057
G1 X123.365 Y108.585 E0.02067
G1 X122.696 Y108.990 F10800.000
G1 F900
G1 X120.392 Y105.000 E0.14446
G1 X122.696 Y101.010 E0.14446
G1 X127.304 Y101.010 E0.14447
G1 X129.608 Y105.000 E0.14446
G1 X127.304 Y108.990 E0.14446
G1 X122.756 Y108.990 E0.14258
G1 X122.696 Y108.590 F10800.000
G1 X123.597 Y108.675
G1 F900
G1 X124.361 Y108.779 E0.00519
G1 F8640
G1 X123.597 Y108.675 E-0.17798
G1 E-0.62202 F2100.00000
G1 Z0.800 F10800.000
G1 X125.639 Y108.779
G1 Z0.200
G1 E0.80000 F2100.00000
G1 F900
G1 X125.797 Y108.763 E0.00107
G1
G1 X126.403 Y108.675 E0.00587
G1 F8640
G1 X125.797 Y108.763 E-0.14138
G1 E-0.65862 F2100.00000
G1 Z0.800 F10800.000
G1 X128.444 Y105.844
G1 Z0.200
G1 E0.80000 F2100.00000
G1 F900
G1 X128.544 Y105.481 E0.00204
G1 X128.326 Y104.682 F10800.000
G1 F900
G1 X128.772 Y105.128 E0.02021
G1 X128.846 Y105.000 E0.00473
G1 X128.377 Y104.188 E0.03002
G1 X125.858 Y101.670 E0.11408
G1 X126.403 Y101.670 E0.01745
G1 X128.096 Y103.363 E0.07670
G1 F8640
G1 X126.403 Y101.670 E-0.55297
G1 X125.858 Y101.670 E-0.12578
G1 X126.107 Y101.918 E-0.08125
G1 E-0.04000 F2100.00000
G1 Z0.800 F10800.000
G1 X126.080 Y102.436
G1 Z0.200
G1 E0.80000 F2100.00000
G1 F900
G1 X125.314 Y101.670 E0.03470
G1 X124.769 Y101.670 E0.01745
G1 X125.388 Y102.289 E0.02804
G1 X124.839 Y102.285 E0.01758
G1 X124.224 Y101.670 E0.02785
G1 X123.679 Y101.670 E0.01745
G1 X124.353 Y102.344 E0.03053
G1 X123.905 Y102.440 E0.01468
G1 X123.135 Y101.670 E0.03491
G1 X123.077 Y101.670 E0.00184
G1 X122.899 Y101.979 E0.01142
G1 X123.528 Y102.608 E0.02851
G1 X123.238 Y102.738 E0.01019
G1 X123.165 Y102.790 E0.00286
G1 X122.699 Y102.324 E0.02111
G1 X122.500 Y102.669 E0.01277
G1 X122.850 Y103.019 E0.01585
G1 X122.642 Y103.171 E0.00826
G1 X122.554 Y103.268 E0.00419
G1 X122.301 Y103.015 E0.01147
G1 X122.101 Y103.360 E0.01277
G1 X122.296 Y103.555 E0.00881
G1 X122.149 Y103.718 E0.00705
G1 X122.063 Y103.866 E0.00548
G1 X121.902 Y103.705 E0.00730
G1 X121.703 Y104.051 E0.01277
G1 X121.864 Y104.212 E0.00729
G1 X121.780 Y104.356 E0.00534
G1 X121.702 Y104.595 E0.00805
G1 X121.503 Y104.396 E0.00903
G1 X121.304 Y104.741 E0.01277
G1 X121.713 Y105.151 E0.01854
G1 X121.456 Y105.481 F10800.000
G1 F900
G1 X121.556 Y105.844 E0.00205
M106 S255
;BEFORE_LAYER_CHANGE
G92 E0.0
;0.4


G1 F8640
G1 X121.456 Y105.481 E-0.08677
G1 E-0.71323 F2100.00000
G1 Z0.800 F10800.000
;AFTER_LAYER_CHANGE
;0.4
M104 S210 ; set temperature
G1 X121.416 Y111.905
G1 Z0.400
G1 E0.80000 F2100.00000
G1 F900
G1 X120.715 Y111.481 E0.02570
G1 X120.161 Y110.883 E0.02556
G1 X117.510 Y106.299 E0.16602
G1 X117.293 Y105.703 E0.01989
G1 X117.208 Y105.079 E0.01976
G1 X117.259 Y104.450 E0.01976
G1 X117.444 Y103.844 E0.01989
G1 X120.106 Y99.198 E0.16787
G1 X120.531 Y98.683 E0.02095
G1 X121.061 Y98.276 E0.02095
G1 X121.694 Y97.992 E0.02174
G1 X122.380 Y97.864 E0.02187
G1 X127.429 Y97.857 E0.15833
G1 X128.167 Y97.952 E0.02332
G1 X128.861 Y98.231 E0.02346
G1 X129.459 Y98.674 E0.02332
G1 X129.928 Y99.252 E0.02332
G1 X132.600 Y103.953 E0.16957
G1 X132.749 Y104.496 E0.01765
G1 X132.792 Y105.061 E0.01778
G1 X132.727 Y105.620 E0.01765
G1 X132.556 Y106.156 E0.01765
G1 X129.873 Y110.834 E0.16906
G1 X129.385 Y111.395 E0.02332
G1 X128.776 Y111.815 E0.02319
G1 X128.139 Y112.055 E0.02135
G1 X127.464 Y112.143 E0.02135
G1 X122.461 Y112.141 E0.15687
G1 X121.475 Y111.918 E0.03168
G1 F8640
G1 X120.715 Y111.481 E-0.20241
G1 X120.161 Y110.883 E-0.18826
G1 X119.360 Y109.498 E-0.36933
G1 E-0.04000 F2100.00000
G1 Z1.000 F10800.000
G1 X123.562 Y108.281
G1 Z0.400
G1 E0.80000 F2100.00000
M204 S800
G1 F900
G1 X123.075 Y107.927 E0.02035
G1 X122.673 Y107.481 E0.02035
G1 X122.372 Y106.960 E0.02035
G1 X122.187 Y106.388 E0.02035
G1 X122.124 Y105.790 E0.02035
G1 X122.187 Y105.192 E0.02035
G1 X122.372 Y104.620 E0.02035
G1 X122.673 Y104.099 E0.02035
G1 X123.075 Y103.653 E0.02035
G1 X123.562 Y103.299 E0.02035
G1 X124.111 Y103.055 E0.02035
G1 X124.699 Y102.930 E0.02035
G1 X125.301 Y102.930 E0.02035
G1 X125.889 Y103.055 E0.02035
G1 X126.438 Y103.299 E0.02035
G1 X126.925 Y103.653 E0.02035
G1 X127.327 Y104.099 E0.02035
G1 X127.628 Y104.620 E0.02035
G1 X127.813 Y105.192 E0.02035
G1 X127.876 Y105.790 E0.02035
G1 X127.813 Y106.388 E0.02035
G1 X127.628 Y106.960 E0.02035
G1 X127.327 Y107.481 E0.02035
G1 X126.925 Y107.927 E0.02035
G1 X126.438 Y108.281 E0.02035
G1 X125.889 Y108.525 E0.02035
G1 X125.301 Y108.651 E0.02035
G1 X124.699 Y108.651 E0.02035
G1 X124.111 Y108.525 E0.02035
G1 X123.617 Y108.305 E0.01832
M204 S1000
G1 X123.215 Y108.481 F10800.000
G1 F8640
G1 X123.075 Y107.927 E-0.15243
G1 X122.673 Y107.481 E-0.13883
G1 X122.372 Y106.960 E-0.13883
G1 X122.187 Y106.388 E-0.13885
G1 X122.124 Y105.790 E-0.13885
G1 X122.147 Y105.565 E-0.05221
G1 E-0.04000 F2100.00000
G1 Z1.000 F10800.000
G1 X121.858 Y106.694
G1 Z0.400
G1 E0.80000 F2100.00000
M204 S800
G1 F900
G1 X120.880 Y105.000 E0.06623
G1 X122.940 Y101.432 E0.13946
G1 X127.060 Y101.432 E0.13946
G1 X129.120 Y105.000 E0.13946
G1 X128.142 Y106.694 E0.06623
G1 X128.214 Y106.473 E0.00787
G1 X128.286 Y105.790 E0.02325
G1 X128.214 Y105.107 E0.02325
G1 X128.001 Y104.454 E0.02325
G1 X127.658 Y103.859 E0.02325
G1 X127.198 Y103.348 E0.02325
G1 X126.643 Y102.945 E0.02325
G1 X126.015 Y102.665 E0.02325
G1 X125.343 Y102.522 E0.02325
G1 X124.657 Y102.522 E0.02325
G1 X123.985 Y102.665 E0.02325
G1 X123.357 Y102.945 E0.02325
G1 X122.802 Y103.348 E0.02325
G1 X122.342 Y103.859 E0.02325
G1 X121.999 Y104.454 E0.02325
G1 X121.786 Y105.107 E0.02325
G1 X121.714 Y105.790 E0.02325
G1 X121.786 Y106.473 E0.02325
G1 X121.840 Y106.637 E0.00584
M204 S1000
G1 F8640
G1 X120.880 Y105.000 E-0.43822
G1 X121.577 Y103.793 E-0.32178
G1 E-0.04000 F2100.00000
G1 Z1.000 F10800.000
G1 X126.735 Y108.568
G1 Z0.400
G1 E0.80000 F2100.00000
M204 S800
G1 F900
G1 X127.198 Y108.232 E0.01938
G1 X127.354 Y108.059 E0.00788
G1 X127.060 Y108.568 E0.01991
G1 X126.795 Y108.568 E0.00896
M204 S1000
G1 F8640
G1 X127.198 Y108.232 E-0.12125
G1 X127.354 Y108.059 E-0.05374
G1 X127.060 Y108.568 E-0.13584
G1 X126.795 Y108.568 E-0.06112
G1 E-0.42805 F2100.00000
G1 Z1.000 F10800.000
G1 X123.265 Y108.568
G1 Z0.400
G1 E0.80000 F2100.00000
M204 S800
G1 F900
G1 X122.940 Y108.568 E0.01099
G1 X122.646 Y108.059 E0.01991
G1 X122.802 Y108.232 E0.00788
G1 X123.216 Y108.533 E0.01735
M204 S1000
G1 X122.705 Y108.975 F10800.000
M204 S800
G1 F900
G1 X120.410 Y105.000 E0.15537
G1 X122.705 Y101.025 E0.15537
G1 X127.295 Y101.025 E0.15537
G1 X129.590 Y105.000 E0.15537
G1 X127.295 Y108.975 E0.15537
G1 X122.765 Y108.975 E0.15334
M204 S1000
G1 X122.705 Y108.575 F10800.000
G1 F8640
G1 X121.087 Y106.143 E-0.76000
G1 E-0.04000 F2100.00000
G1 Z1.000 F10800.000
G1 X122.526 Y107.894
G1 Z0.400
G1 E0.80000 F2100.00000
G1 F900
G1 X122.390 Y107.707 E0.00635
G1
G1 X122.050 Y107.121 E0.01779
G1 X121.941 Y106.880 E0.00695
G1 F8640
G1 X122.050 Y107.121 E-0.06109
G1 X122.390 Y107.707 E-0.15629
G1 E-0.58262 F2100.00000
G1 Z1.000 F10800.000
G1 X121.103 Y105.143
G1 Z0.400
G1 E0.80000 F2100.00000
M204 S1250
G1 F900
G1 X121.488 Y104.758 E0.02211
M204 S1000
G1 X121.531 Y104.644 F10800.000
G1 F900
G1 X121.687 Y104.298 E0.00919
G1 X122.068 Y103.641 E0.01843
G1
G1 X122.273 Y103.359 E0.00956
G1 X122.235 Y103.181 F10800.000
M204 S1250
G1 F900
G1 X123.862 Y101.554 E0.07965
M204 S1000
G1 F8640
G1 X122.235 Y103.181 E-0.53119
G1 E-0.26881 F2100.00000
G1 Z1.000 F10800.000
G1 X122.821 Y103.183
G1 Z0.400
G1 E0.80000 F2100.00000
M204 S1250
G1 F900
G1 X124.267 Y101.737 E0.07079
G1 X124.856 Y101.737 E0.02039
G1 X124.309 Y102.284 E0.02678
G1 X124.624 Y102.217 E0.01116
G1 X124.965 Y102.217 E0.01179
G1 X125.445 Y101.737 E0.02350
G1 X126.034 Y101.737 E0.02039
G1 X125.523 Y102.248 E0.02503
G1 X126.008 Y102.352 E0.01719
G1 X126.623 Y101.737 E0.03009
G1 X126.884 Y101.737 E0.00904
G1 X127.004 Y101.945 E0.00831
G1 X126.432 Y102.517 E0.02799
G1 X126.833 Y102.705 E0.01532
G1 X127.219 Y102.318 E0.01894
G1 X127.435 Y102.692 E0.01493
G1 X127.042 Y103.084 E0.01922
M204 S1000
G1 X127.727 Y103.359 F10800.000
G1 F900
G1 X127.949 Y103.666 E0.00918
G1 X128.327 Y104.325 E0.01843
G1
G1 X128.469 Y104.644 E0.00956
G1 F8640
G1 X128.327 Y104.325 E-0.08047
G1 E-0.71953 F2100.00000
G1 Z1.000 F10800.000
G1 X128.059 Y106.880
G1 Z0.400
G1 E0.80000 F2100.00000
G1 F900
G1 X127.965 Y107.092 E0.00636
G1
G1 X127.628 Y107.679 E0.01779
G1 X127.474 Y107.894 E0.00695
;BEFORE_LAYER_CHANGE
G92 E0.0
;0.6


G1 F8640
G1 X127.628 Y107.679 E-0.06104
G1 X127.965 Y107.092 E-0.15629
G1 E-0.58266 F2100.00000
G1 Z1.000 F10800.000
;AFTER_LAYER_CHANGE
;0.6
G1 X129.385 Y111.395
G1 Z0.600
G1 E0.80000 F2100.00000
G1 F900
G1 X128.776 Y111.815 E0.02319
G1 X128.139 Y112.055 E0.02135
G1 X127.464 Y112.143 E0.02135
G1 X122.461 Y112.141 E0.15687
G1 X121.416 Y111.905 E0.03356
G1 X120.715 Y111.481 E0.02570
G1 X120.161 Y110.883 E0.02556
G1 X117.510 Y106.299 E0.16602
G1 X117.293 Y105.703 E0.01989
G1 X117.208 Y105.079 E0.01976
G1 X117.259 Y104.450 E0.01976
G1 X117.444 Y103.844 E0.01989
G1 X120.106 Y99.198 E0.16787
G1 X120.531 Y98.683 E0.02095
G1 X121.061 Y98.276 E0.02095
